X: 37
T:Ale is Dear
R:Reel
S:Nathan Curry
B:Nathan's Sideways Book
Z:Added by Alf Warnock
M:4/4
L:1/8
K:D
f2ef B2fe|faea cAec|f2ef B2fe|faec B3B:|
B2Bc d2cB|A2AB cABA|B2Bc d2cB|efec B3B:|

